X:1
T:Down in the Mines
C:Traditional
M:3/4
L:1/4
Q:1/4=120
K:F
D/2E/2|F F F/2G/2|A B B|d f f|g2 f/2g/2|a a3/2g/2|f c c|d f f|d c/2B/2A/2G/2|
F F F/2G/2|A B B|d f f|g2 f/2g/2|a a3/2g/2|f c c|d f e|f3|]
